Bloom-Colors/scalable/status/user-busy-symbolic.svg

<svg width="16" height="16" version="1.1" xmlns="http://www.w3.org/2000/svg">
<path d="m8 2c-1.66 0-3 1.34-3 3 0 1.65 1.34 3 3 3s3-1.35 3-3c0-1.66-1.34-3-3-3zm0 8c-6 0-6 4-6 4v1h6.76a4.5 4.5 0 0 1-0.76-2.5 4.5 4.5 0 0 1 0.74-2.47c-0.24-0.02-0.48-0.03-0.74-0.03z" fill="#666"/>
<path class="error" d="m12.5 9a3.5 3.5 0 0 0-3.5 3.5 3.5 3.5 0 0 0 3.5 3.5 3.5 3.5 0 0 0 3.5-3.5 3.5 3.5 0 0 0-3.5-3.5zm-2.5 3h5v1h-5z" fill="#f44336"/>
</svg>

<svg xmlns="http://www.w3.org/2000/svg" width="16" height="16" version="1.1">
 <path style="fill:#444444" d="M 8,2 C 6.34,2 5,3.34 5,5 5,6.65 6.34,8 8,8 9.66,8 11,6.65 11,5 11,3.34 9.66,2 8,2 Z M 8,10 C 2,10 2,14 2,14 V 15 H 8.76 A 4.5,4.5 0 0 1 8,12.5 4.5,4.5 0 0 1 8.74,10.03 C 8.5,10.01 8.26,10 8,10 Z"/>
 <path style="fill:#4285f4" class="warning" d="M 12.5,9 A 3.5,3.5 0 0 0 9,12.5 3.5,3.5 0 0 0 12.5,16 3.5,3.5 0 0 0 16,12.5 3.5,3.5 0 0 0 12.5,9 Z M 10,12 H 15 V 13 H 10 Z"/>
</svg>
